src/resources/assets/cut.svg

<svg width="16" height="16" fill="none" xmlns="http://www.w3.org/2000/svg"><path d="m 8.0939333,6.2276658 -6e-4,9.066e-4 L 4.9134467,1.5522658 C 4.7581667,1.3239124 4.44718,1.2646791 4.2188267,1.4199591 3.99048,1.5752391 3.9312467,1.8862258 4.08652,2.1145791 L 7.5070667,7.1447324 5.9098533,9.640332 C 5.5386467,9.444332 5.1156133,9.333399 4.6666667,9.333399 3.1939067,9.333399 2,10.527332 2,12.000066 c 0,1.4728 1.1939067,2.666666 2.6666667,2.666666 1.47276,0 2.6666666,-1.193866 2.6666666,-2.666666 0,-0.6608 -0.2403333,-1.265467 -0.6384,-1.731334 L 8.1186667,8.0441324 9.495067,10.068266 c -0.5103337,0.485733 -0.8284003,1.171666 -0.8284003,1.9318 0,1.4728 1.1939333,2.666666 2.6666663,2.666666 1.472734,0 2.666667,-1.193866 2.666667,-2.666666 0,-1.472734 -1.193933,-2.666667 -2.666667,-2.666667 -0.352666,0 -0.6894,0.06847 -0.997533,0.192867 L 8.705,7.1279991 8.7058667,7.1266658 Z M 3,12.000066 c 0,-0.920467 0.7461933,-1.666667 1.6666667,-1.666667 0.9204733,0 1.6666666,0.7462 1.6666666,1.666667 0,0.920466 -0.7461933,1.666666 -1.6666666,1.666666 C 3.7461933,13.666732 3,12.920532 3,12.000066 Z m 6.666667,0 c 0,-0.920467 0.7462,-1.666667 1.666666,-1.666667 0.920467,0 1.666667,0.7462 1.666667,1.666667 0,0.920466 -0.7462,1.666666 -1.666667,1.666666 -0.920466,0 -1.666666,-0.7462 -1.666666,-1.666666 z" fill="#ddd"/><path d="M 9.292067,6.2107124 11.921,2.1029191 c 0.148867,-0.2325867 0.081,-0.5418067 -0.1516,-0.69066 -0.232533,-0.1488533 -0.5418,-0.08098 -0.690667,0.1516067 l -2.3985997,3.74784 z" fill="#ddd"/></svg>

<svg width="16" height="16" fill="none" xmlns="http://www.w3.org/2000/svg"><path d="M8.094 6.228l-3.18-4.676a.5.5 0 10-.827.563l3.42 5.03L5.91 9.64a2.667 2.667 0 10.785.628l1.424-2.224 1.376 2.024a2.667 2.667 0 10.84-.542l-1.63-2.398v-.001zM3 12a1.667 1.667 0 113.333 0A1.667 1.667 0 013 12zm6.667 0A1.667 1.667 0 1113 12a1.667 1.667 0 01-3.333 0z" fill="#ddd"/><path d="M9.292 6.21l2.629-4.107a.5.5 0 10-.842-.54L8.68 5.313z" fill="#ddd"/></svg>
